images/grade/5z.svg

<svg width="107" height="19" viewBox="0 0 107 19" fill="none" xmlns="http://www.w3.org/2000/svg">
<path d="M18.2961 6.58663C18.2384 6.41682 18.1323 6.26761 17.9908 6.15742C17.8493 6.04723 17.6787 5.98089 17.4999 5.96658L12.2708 5.55107L10.008 0.542056C9.9359 0.380725 9.81869 0.243699 9.67047 0.147514C9.52225 0.0513295 9.34936 9.71158e-05 9.17266 1.37932e-07C8.99597 -9.684e-05 8.82302 0.0509458 8.6747 0.146968C8.52637 0.24299 8.40901 0.379887 8.33677 0.541138L6.07395 5.55107L0.844797 5.96658C0.669105 5.9805 0.501144 6.04474 0.361006 6.15161C0.220868 6.25849 0.114488 6.40348 0.0545932 6.56923C-0.00530196 6.73498 -0.0161763 6.91448 0.0232713 7.08625C0.062719 7.25802 0.150818 7.41479 0.277029 7.5378L4.14134 11.3049L2.77466 17.2229C2.73316 17.402 2.74646 17.5895 2.81283 17.761C2.8792 17.9324 2.99559 18.08 3.14687 18.1845C3.29816 18.2891 3.47737 18.3457 3.66124 18.3471C3.84511 18.3485 4.02516 18.2946 4.17803 18.1924L9.17237 14.8628L14.1667 18.1924C14.3229 18.2961 14.5072 18.3495 14.6947 18.3454C14.8822 18.3413 15.0639 18.2799 15.2155 18.1694C15.367 18.0589 15.4811 17.9047 15.5423 17.7274C15.6036 17.5502 15.6091 17.3584 15.5581 17.1779L13.8805 11.3076L18.0411 7.56348C18.3135 7.31766 18.4135 6.93426 18.2961 6.58663Z" fill="#F3CD03"/>
<path d="M40.3103 6.58663C40.2526 6.41682 40.1465 6.26761 40.005 6.15742C39.8635 6.04723 39.6929 5.98089 39.5141 5.96658L34.2849 5.55107L32.0221 0.542056C31.9501 0.380725 31.8328 0.243699 31.6846 0.147514C31.5364 0.0513295 31.3635 9.71158e-05 31.1868 1.37932e-07C31.0101 -9.684e-05 30.8372 0.0509458 30.6889 0.146968C30.5405 0.24299 30.4232 0.379887 30.3509 0.541138L28.0881 5.55107L22.859 5.96658C22.6833 5.9805 22.5153 6.04474 22.3752 6.15161C22.235 6.25849 22.1286 6.40348 22.0688 6.56923C22.0089 6.73498 21.998 6.91448 22.0374 7.08625C22.0769 7.25802 22.165 7.41479 22.2912 7.5378L26.1555 11.3049L24.7888 17.2229C24.7473 17.402 24.7606 17.5895 24.827 17.761C24.8934 17.9324 25.0097 18.08 25.161 18.1845C25.3123 18.2891 25.4915 18.3457 25.6754 18.3471C25.8593 18.3485 26.0393 18.2946 26.1922 18.1924L31.1865 14.8628L36.1809 18.1924C36.3371 18.2961 36.5214 18.3495 36.7089 18.3454C36.8963 18.3413 37.0781 18.2799 37.2296 18.1694C37.3812 18.0589 37.4952 17.9047 37.5565 17.7274C37.6178 17.5502 37.6233 17.3584 37.5723 17.1779L35.8947 11.3076L40.0553 7.56348C40.3277 7.31766 40.4277 6.93426 40.3103 6.58663Z" fill="#F3CD03"/>
<path d="M62.321 6.58663C62.2633 6.41682 62.1572 6.26761 62.0157 6.15742C61.8743 6.04723 61.7036 5.98089 61.5248 5.96658L56.2957 5.55107L54.0329 0.542056C53.9608 0.380725 53.8436 0.243699 53.6954 0.147514C53.5471 0.0513295 53.3743 9.71158e-05 53.1976 1.37932e-07C53.0209 -9.684e-05 52.8479 0.0509458 52.6996 0.146968C52.5513 0.24299 52.4339 0.379887 52.3617 0.541138L50.0989 5.55107L44.8697 5.96658C44.694 5.9805 44.526 6.04474 44.3859 6.15161C44.2458 6.25849 44.1394 6.40348 44.0795 6.56923C44.0196 6.73498 44.0087 6.91448 44.0482 7.08625C44.0876 7.25802 44.1757 7.41479 44.3019 7.5378L48.1662 11.3049L46.7996 17.2229C46.7581 17.402 46.7714 17.5895 46.8377 17.761C46.9041 17.9324 47.0205 18.08 47.1718 18.1845C47.3231 18.2891 47.5023 18.3457 47.6861 18.3471C47.87 18.3485 48.0501 18.2946 48.2029 18.1924L53.1973 14.8628L58.1916 18.1924C58.3478 18.2961 58.5321 18.3495 58.7196 18.3454C58.9071 18.3413 59.0888 18.2799 59.2404 18.1694C59.3919 18.0589 59.506 17.9047 59.5672 17.7274C59.6285 17.5502 59.634 17.3584 59.5831 17.1779L57.9054 11.3076L62.066 7.56348C62.3384 7.31766 62.4384 6.93426 62.321 6.58663Z" fill="#F3CD03"/>
<path d="M84.3371 6.58663C84.2795 6.41682 84.1733 6.26761 84.0319 6.15742C83.8904 6.04723 83.7197 5.98089 83.541 5.96658L78.3118 5.55107L76.049 0.542056C75.9769 0.380725 75.8597 0.243699 75.7115 0.147514C75.5633 0.0513295 75.3904 9.71158e-05 75.2137 1.37932e-07C75.037 -9.684e-05 74.864 0.0509458 74.7157 0.146968C74.5674 0.24299 74.45 0.379887 74.3778 0.541138L72.115 5.55107L66.8858 5.96658C66.7101 5.9805 66.5422 6.04474 66.402 6.15161C66.2619 6.25849 66.1555 6.40348 66.0956 6.56923C66.0357 6.73498 66.0248 6.91448 66.0643 7.08625C66.1037 7.25802 66.1918 7.41479 66.318 7.5378L70.1824 11.3049L68.8157 17.2229C68.7742 17.402 68.7875 17.5895 68.8538 17.761C68.9202 17.9324 69.0366 18.08 69.1879 18.1845C69.3392 18.2891 69.5184 18.3457 69.7023 18.3471C69.8861 18.3485 70.0662 18.2946 70.219 18.1924L75.2134 14.8628L80.2077 18.1924C80.364 18.2961 80.5482 18.3495 80.7357 18.3454C80.9232 18.3413 81.1049 18.2799 81.2565 18.1694C81.408 18.0589 81.5221 17.9047 81.5834 17.7274C81.6446 17.5502 81.6501 17.3584 81.5992 17.1779L79.9215 11.3076L84.0821 7.56348C84.3545 7.31766 84.4545 6.93426 84.3371 6.58663Z" fill="#F3CD03"/>
<path d="M92.1977 11.3049L90.831 17.2229C90.7887 17.4021 90.8014 17.5899 90.8674 17.7618C90.9335 17.9336 91.0499 18.0816 91.2013 18.1863C91.3528 18.291 91.5323 18.3476 91.7164 18.3487C91.9006 18.3498 92.0808 18.2953 92.2334 18.1924L97.2278 14.8629L102.222 18.1924C102.378 18.2962 102.563 18.3496 102.75 18.3454C102.938 18.3413 103.119 18.2799 103.271 18.1694C103.422 18.0589 103.536 17.9047 103.598 17.7274C103.659 17.5502 103.665 17.3584 103.614 17.178L101.936 11.3077L106.097 7.56351C106.23 7.44353 106.325 7.28712 106.37 7.11362C106.416 6.94012 106.409 6.75715 106.351 6.58734C106.294 6.41752 106.188 6.26831 106.046 6.15815C105.905 6.04799 105.734 5.98172 105.555 5.96752L100.326 5.5511L98.0634 0.542085C97.9912 0.380794 97.8739 0.243833 97.7257 0.147729C97.5774 0.0516259 97.4045 0.000488281 97.2278 0.000488281C97.0511 0.000488281 96.8782 0.0516259 96.7299 0.147729C96.5816 0.243833 96.4643 0.380794 96.3922 0.542085L94.1294 5.5511L88.9002 5.96661C88.7245 5.98053 88.5566 6.04477 88.4164 6.15164C88.2763 6.25852 88.1699 6.40351 88.11 6.56926C88.0501 6.73501 88.0392 6.91451 88.0787 7.08628C88.1181 7.25805 88.2062 7.41482 88.3324 7.53783L92.1977 11.3049ZM94.8145 7.33696C94.9783 7.32406 95.1355 7.26735 95.2698 7.17278C95.404 7.07821 95.5104 6.94927 95.5777 6.79946L97.2278 3.14795L98.8779 6.79946C98.9452 6.94927 99.0515 7.07821 99.1858 7.17278C99.3201 7.26735 99.4773 7.32406 99.641 7.33696L103.284 7.62588L100.284 10.3262C100.024 10.561 99.9199 10.9224 100.015 11.26L101.165 15.282L97.7378 12.9972C97.5874 12.8963 97.4103 12.8423 97.2292 12.8423C97.048 12.8423 96.871 12.8963 96.7206 12.9972L93.1397 15.3848L94.1028 11.215C94.1381 11.0617 94.1333 10.9018 94.089 10.7508C94.0447 10.5998 93.9622 10.4627 93.8496 10.3528L91.0631 7.63597L94.8145 7.33696Z" fill="#F3CD03"/>
</svg>

<svg width="107" height="19" fill="none" xmlns="http://www.w3.org/2000/svg"><path d="M18.296 6.587a.918.918 0 0 0-.796-.62l-5.23-.416L10.009.542a.916.916 0 0 0-1.671 0l-2.263 5.01-5.23.415a.917.917 0 0 0-.567 1.57l3.864 3.768-1.366 5.918a.917.917 0 0 0 1.403.97l4.994-3.33 4.995 3.33a.918.918 0 0 0 1.391-1.015l-1.678-5.87 4.161-3.745a.919.919 0 0 0 .255-.976ZM40.31 6.587a.918.918 0 0 0-.796-.62l-5.23-.416L32.023.542a.915.915 0 0 0-1.671 0l-2.263 5.01-5.229.415a.917.917 0 0 0-.568 1.57l3.864 3.768-1.366 5.918a.917.917 0 0 0 1.403.97l4.994-3.33 4.995 3.33a.918.918 0 0 0 1.391-1.015l-1.677-5.87 4.16-3.745a.919.919 0 0 0 .255-.976ZM62.321 6.587a.918.918 0 0 0-.796-.62l-5.23-.416L54.034.542a.916.916 0 0 0-1.671 0l-2.263 5.01-5.23.415a.917.917 0 0 0-.567 1.57l3.864 3.768-1.366 5.918a.918.918 0 0 0 1.403.97l4.994-3.33 4.995 3.33a.918.918 0 0 0 1.391-1.015l-1.678-5.87 4.161-3.745a.919.919 0 0 0 .255-.976ZM84.337 6.587a.918.918 0 0 0-.796-.62l-5.23-.416L76.05.542a.916.916 0 0 0-1.671 0l-2.263 5.01-5.23.415a.917.917 0 0 0-.567 1.57l3.864 3.768-1.366 5.918a.918.918 0 0 0 1.403.97l4.994-3.33 4.995 3.33a.919.919 0 0 0 1.391-1.015l-1.678-5.87 4.161-3.745a.919.919 0 0 0 .255-.976ZM92.198 11.305l-1.367 5.918a.916.916 0 0 0 1.402.97l4.995-3.33 4.994 3.33a.918.918 0 0 0 1.392-1.015l-1.678-5.87 4.161-3.744a.916.916 0 0 0-.051-1.406.915.915 0 0 0-.491-.19l-5.229-.417L98.063.542a.916.916 0 0 0-1.67 0l-2.264 5.01-5.229.415a.917.917 0 0 0-.568 1.57l3.866 3.768Zm2.617-3.968a.916.916 0 0 0 .763-.538l1.65-3.651 1.65 3.651a.915.915 0 0 0 .763.538l3.643.289-3 2.7a.92.92 0 0 0-.269.934l1.15 4.022-3.427-2.285a.913.913 0 0 0-1.017 0l-3.581 2.388.963-4.17a.918.918 0 0 0-.253-.862l-2.787-2.717 3.751-.299Z" fill="#F3CD03"/></svg>
